X: 49
T:Swan,The. JB.48
M:2/4
L:1/8
Q:300
S:James Biggins MS, Leeds, 1779.
R:Reel
O:England
A:Yorkshire
Z:vmp.Nick Barber & Chris Partington
K:G
D|G2GB|AFD2|A2Ac|BGGB|c2ce|dBAG|AcBA|G3:|!
|:d2dg|fed2|cABG|AFED|d2dg|fedc|BGAF|G2G,2:|!
|:BGAc|BGAc|BGdG|A/G/F/E/D2|BGAc|BGAc|BdgA|G2G,2:|]
